X:37
T:Little Stack of Wheat
Z: id:dc-hornpipe-33
M:C|
L:1/8
K:G Major
GA|BGAG EGDE|G2GF GBAG|EGAB cBAG|EAAG A2AB|!
cecA BdBG|ABAG EGDG|BGAG EGDE|G2GF G2:|!
Bc|d2ed dBGA|Beed e3f|gfed BGBd|g2fa g2ef|!
gbgf efed|BGAG EGDG|BGAG EGDE|G2GF G2:|!

